X:102
T: Die dienende Schwester
N: Q00754
O: Mitteleuropa, Deutschland / UdSSR, Ostpreussen
R: Ballade, Adelige als Dienstmagd, Tod; Kinder - Spiel, Tanz
M: 3/4
L: 1/16
K: F
C4C2F2 | F4A4G3F | E4z2
G2A3B | c6B2A3G | F4z2
c2c3c | c6c2A3F | G4z2
C2F2A2 | G6B2A3G | F4

